X:1
T:The Drunken Parson
D:Jimmy Greenan, The Jeenius of Jim
Z:Nigel Gatherer tradtunes 2002-1-4
B:Burke Thumoth's "12 Scottish and 12 Irish Airs" c.1750
L:1/8
M:6/8
K:A
e \
| Acc Bdd | cee d2f | ecc  dBB | cAA BAE \
| Acc Bdd | cee d2f | ecc  dBe | cAA A2 :|
B \
| Ace aga | fdd d2c | B^df bab | gee e2c \
| Ace aga | fdd d2f | ecc  dBe | cAA A2 :|
